images/bxs-comment-edit.svg

<svg height="24" viewBox="0 0 24 24" width="24" xmlns="http://www.w3.org/2000/svg"><path d="m20 2h-16c-1.103 0-2 .897-2 2v18l4-4h14c1.103 0 2-.897 2-2v-12c0-1.103-.897-2-2-2zm-11.001 12.987h-1.999v-1.999l5.53-5.522 1.998 1.999zm6.472-6.464-1.999-1.999 1.524-1.523 1.999 1.999z"/></svg>

<svg xmlns="http://www.w3.org/2000/svg" width="24" height="24" viewBox="0 0 24 24"><path d="M20,2H4C2.897,2,2,2.897,2,4v18l4-4h14c1.103,0,2-0.897,2-2V4C22,2.897,21.103,2,20,2z M8.999,14.987H7v-1.999l5.53-5.522 l1.998,1.999L8.999,14.987z M15.471,8.523l-1.999-1.999l1.524-1.523L16.995,7L15.471,8.523z"/></svg>
